frontend/svgs/biz049.svg

<?xml version="1.0" encoding="UTF-8"?> <svg width="100px" height="100px" viewBox="0 0 100 100" version="1.1" xmlns="http://www.w3.org/2000/svg" xmlns:xlink="http://www.w3.org/1999/xlink"> <g id="49.-Discount" stroke="none" stroke-width="1" fill="none" fill-rule="evenodd" stroke-linecap="round" stroke-linejoin="round"> <path d="M40.3315327,10.8590941 C40.6946512,5.9055003 44.807183,2 49.8270119,2 C54.8142097,2 58.9058677,5.85489031 59.3149353,10.762626 C59.4717731,10.7995104 59.6282613,10.8373082 59.7843942,10.8760134 C62.4076641,6.64056179 67.884839,5.11473031 72.3323459,7.49223429 C76.7231332,9.83941769 78.5379893,15.1504762 76.6344365,19.6684285 C76.7545172,19.7731388 76.8739787,19.8785435 76.992817,19.9846383 C81.2309728,17.4787532 86.7418091,18.6322835 89.6104887,22.751224 C92.4830971,26.8758056 91.6702981,32.4863922 87.8652234,35.6308907 C87.924086,35.7817741 87.9820816,35.9330951 88.0392041,36.0848475 C92.9679052,35.8512462 97.316882,39.4769419 97.9280515,44.4812972 C98.5366105,49.4642777 95.2203913,54.0223264 90.4152783,55.0208793 C90.3979422,55.1806889 90.3796893,55.3402216 90.360525,55.499472 C94.8572493,57.6030476 97.0281752,62.8799167 95.2238946,67.6055165 C93.440665,72.2759813 88.4134273,74.7344106 83.7186509,73.3798908 C83.6292501,73.5129507 83.5390901,73.6454525 83.4481771,73.7773901 C86.4277174,77.7006477 85.9574658,83.3317347 82.2447859,86.6926317 C78.5189155,90.0654693 72.8727268,89.9342261 69.305274,86.5096111 C69.1639634,86.5863425 69.0221492,86.6622566 68.8798377,86.7373473 C69.7053682,91.6237385 66.6567887,96.3997978 61.7940562,97.618736 C56.9434455,98.8346357 52.033901,96.0734113 50.4681923,91.3906532 C50.3202196,91.3922476 50.1720573,91.3930469 50.0237092,91.3930469 C50.0129808,91.3930469 50.0022534,91.3930427 49.9915269,91.3930344 C48.4598038,96.1317175 43.5177105,98.9372525 38.6353256,97.713388 C33.8045076,96.5024498 30.7641078,91.7809286 31.53379,86.9281933 C31.3906569,86.8545282 31.2480155,86.7800345 31.1058721,86.7047186 C27.542598,90.1946452 21.8471696,90.3496546 18.0970927,86.9549041 C14.4086927,83.6159864 13.9204505,78.0364746 16.8356879,74.1168516 C16.7434975,73.9859105 16.6520546,73.8544 16.5613652,73.7223262 C11.8401251,75.1366394 6.75804605,72.6766774 4.96302359,67.9753258 C3.17053616,63.2806138 5.30145918,58.0418154 9.73851633,55.9109355 C9.71773096,55.7517716 9.69785693,55.5923192 9.67889969,55.4325837 C4.82301944,54.4743731 1.45942168,49.8893944 2.07194852,44.8739246 C2.67912278,39.9022826 6.97539624,36.2913347 11.8642136,36.4733909 C11.919797,36.3210395 11.976256,36.1691168 12.0335857,36.0176257 C8.16441037,32.8851708 7.32210455,27.228217 10.2134562,23.0767232 C13.0633566,18.9847464 18.5209345,17.8194821 22.7477331,20.2613953 C22.8654782,20.1541217 22.9838517,20.0475326 23.1028474,19.9416344 C21.1372378,15.4045555 22.9469556,10.0387213 27.366739,7.67603747 C31.7852608,5.31402801 37.2200735,6.80464265 39.8630395,10.9773531 C40.0188441,10.9370258 40.1750105,10.8976041 40.3315327,10.8590941 L40.3315327,10.8590941 Z" id="Layer-1" stroke="#FEC957" stroke-width="4" fill="#FEC957"></path> <circle id="Layer-2" stroke="#FFFFFF" stroke-width="6" cx="38" cy="38" r="7.2"></circle> <circle id="Layer-3" stroke="#FFFFFF" stroke-width="6" cx="62" cy="62" r="7.2"></circle> <path d="M68.72,31.28 L31.28,68.72" id="Layer-4" stroke="#FFFFFF" stroke-width="6"></path> </g> </svg>

<svg width="100" height="100" xmlns="http://www.w3.org/2000/svg"><g fill="none" fill-rule="evenodd" stroke-linecap="round" stroke-linejoin="round"><path d="M40.332 10.86C40.695 5.905 44.807 2 49.827 2c4.987 0 9.079 3.855 9.488 8.763.157.037.313.074.47.113 2.623-4.235 8.1-5.761 12.547-3.384 4.391 2.347 6.206 7.658 4.302 12.176.12.105.24.21.359.317 4.238-2.506 9.749-1.353 12.617 2.766 2.873 4.125 2.06 9.735-1.745 12.88.06.15.117.302.174.454 4.929-.234 9.278 3.392 9.89 8.396.608 4.983-2.709 9.541-7.514 10.54-.017.16-.035.32-.054.478 4.496 2.104 6.667 7.38 4.863 12.107-1.783 4.67-6.81 7.128-11.505 5.774l-.27.397c2.979 3.924 2.508 9.555-1.204 12.916a9.485 9.485 0 01-12.94-.183l-.425.227c.825 4.887-2.223 9.663-7.086 10.882-4.85 1.216-9.76-1.546-11.326-6.228a41.254 41.254 0 01-.476.002c-1.532 4.739-6.474 7.544-11.357 6.32-4.83-1.21-7.87-5.932-7.101-10.785a40.431 40.431 0 01-.428-.223 9.485 9.485 0 01-13.009.25c-3.688-3.339-4.177-8.919-1.261-12.838-.093-.131-.184-.263-.275-.395-4.72 1.415-9.803-1.045-11.598-5.747-1.792-4.694.338-9.933 4.776-12.064l-.06-.478c-4.856-.959-8.22-5.544-7.607-10.56.607-4.97 4.903-8.582 9.792-8.4.056-.152.112-.304.17-.455-3.87-3.133-4.712-8.79-1.82-12.941 2.85-4.092 8.307-5.258 12.534-2.816.117-.107.236-.213.355-.32-1.966-4.536-.156-9.902 4.264-12.265 4.418-2.362 9.853-.871 12.496 3.301.156-.04.312-.08.469-.118h0z" stroke="#FEC957" stroke-width="4" fill="#FEC957"/><circle stroke="#FFF" stroke-width="6" cx="38" cy="38" r="7.2"/><circle stroke="#FFF" stroke-width="6" cx="62" cy="62" r="7.2"/><path d="M68.72 31.28L31.28 68.72" stroke="#FFF" stroke-width="6"/></g></svg>
